svg/u1f989.svg

<svg viewBox="0 0 128 128" xmlns="http://www.w3.org/2000/svg">
  <path d="M97.36,62.59c0,0,4.5-9.71,4.01-18.37c-0.32-5.56,0.92-29.63-35.69-30.34 c-36.6-0.7-38.86,20.74-38.86,31.25c0,7.88,3.52,15.35,3.52,15.35s-2.96-0.7-6.34,3.24s-3.54,12.47-1.13,17.18 c3.03,5.91,8.02,9.29,8.02,9.29l10.42,15.35c0,0-1.55,4.29-4.22,7.46c-1.8,2.14-5.58,5.46-5.49,6.76c0.14,1.97,4.22,0.99,10.14,1.27 c5.91,0.28,22.67-2.53,22.67-2.53s22.81,1.41,25.06,1.55c2.25,0.14,7.11,0.49,7.74-0.99c0.39-0.91-3.42-4.2-5-7.04 c-2.04-3.66-3.31-9.43-3.31-9.43s4.65-9.71,6.62-11.26c1.97-1.55,7.46-8.45,9.01-12.11s2.11-10.56-1.13-13.8 C101,62.99,97.36,62.59,97.36,62.59z" fill="#6E4F44"/>
  <path d="M86.17,19.51c0,0,2.11-4.5,6.34-7.25c3.9-2.53,8.52-2.25,8.87-1.9c0.35,0.35-0.54,3.68-2.11,5.91 c-1.34,1.9-2.75,3.38-2.53,3.59c0.39,0.39,1.72-1.33,3.45-2.75c2.32-1.9,5.35-2.6,5.7-2.32s0.84,5.35-1.41,9.64 c-2.11,4.01-5.98,6.55-5.98,6.55l-5.42-7.32L86.17,19.51z" fill="#6E4F44"/>
  <path d="M44.28,19.01c0,0-2.53-5.21-5.56-8.31s-7.74-4.86-8.31-4.29s-0.49,4.01,0.21,6.26s2.82,4.5,2.18,4.93 c-0.63,0.42-1.73-2.13-2.82-3.31c-1.76-1.9-4.93-3.45-5.49-3.1c-0.56,0.35-1.9,5.7,0.77,10.63c2.37,4.37,5.84,8.45,5.84,8.45 l8.17-7.81L44.28,19.01z" fill="#6E4F44"/>
  <path d="M46.96,111.06c0,0-0.5,2.08-3.1,4.41c-2.96,2.65-7.98,6.1-4.79,7.23c3.19,1.13,7.7,1.13,12.39,0.19 c4.69-0.94,9.29-2.35,12.58-2.35c3.28,0,9.95,1.22,13.23,1.69c3.28,0.47,7.47,0.88,9.85,0.38c2.21-0.47,3.26-1.45-0.54-5.4 c-1.63-1.69-4.43-6.43-4.43-6.43l-18.96,3.1L46.96,111.06z" fill="#878787"/>
  <path d="M36.45,61.41c0,0-3.85,0.38-5.44,2.53s-3.75,8.26-3.38,16.89c0.38,8.63,4.13,15.96,9.01,22.43 c4.88,6.48,11.54,13.05,26.65,12.58c15.11-0.47,22.99-4.32,26.94-11.26c3.94-6.95,8.82-16.14,9.29-24.78 c0.47-8.63-3.85-16.52-5.26-17.55c-1.41-1.03-30.5-2.44-30.5-2.44L36.45,61.41z" fill="#875D54"/>
  <linearGradient id="SVGID_1_" gradientUnits="userSpaceOnUse" x1="63.4068" x2="63.7159" y1="60.8187" y2="110.6862">
    <stop offset="0.0499" stop-color="#F5DBB8"/>
    <stop offset="0.2381" stop-color="#F2D2AF"/>
    <stop offset="0.5467" stop-color="#E9B996"/>
    <stop offset="0.8936" stop-color="#DC9673"/>
  </linearGradient>
  <path d="M42.17,61.41c0,0-9.29,8.35-7.6,22.99c1.49,12.92,10.7,26.19,28.81,26.28 c20.56,0.11,28.14-14.57,29.19-26.47c1.22-13.89-6.66-22.34-7.7-23.18C83.84,60.19,42.17,61.41,42.17,61.41z" fill="url(#SVGID_1_)"/>
  <path d="M64.23,73.43c0,0,8.07-8.54,14.45-10.23c6.38-1.69,15.58-0.94,15.58-0.94s4.29-6.43,4.6-18.77 c0.33-13.25-6.66-18.96-6.66-18.96s-11.64-2.25-19.71,6.19c-6.76,7.07-5.91,15.58-5.91,15.58l-3.64-0.61c0,0,0.05-9.46-6.62-15.27 s-15.84-7.3-15.84-7.3s-11.14,5.95-11.4,19.69c-0.28,14.73,5.28,18.93,5.28,18.93s9.03,0.23,17.01,3.05S64.23,73.43,64.23,73.43z" fill="#F2A35B"/>
  <path d="M93.23,42.83c0,7.3-3.93,12.97-12.11,13.89c-8.86,1-13.24-5.75-13.24-13.05s5.67-13.22,12.67-13.22 S93.23,35.53,93.23,42.83z" fill="#D0805F"/>
  <path d="M59.65,36.6c3.63,6.6,2.18,16.37-3.87,18.99c-7.13,3.1-14.67,0.03-18.3-6.57s-1.23-14.14,4.9-17.51 S56.02,30,59.65,36.6z" fill="#D0805F"/>
  <path d="M78.35,73.14c1.67,0.37,2.53-2.82,4.46-1.27c1.92,1.55-0.8,4.5-3.8,4.6c-3,0.09-6.24-1.97-5.12-3.94 C75.02,70.56,76.43,72.72,78.35,73.14z" fill="#D0805F"/>
  <path d="M85.49,81.26c2.39-0.23,3.57-2.91,5.16-1.27s-0.99,4.46-5.02,4.69c-4.04,0.23-6.19-1.83-5.3-3.43 C81.22,79.67,82.62,81.54,85.49,81.26z" fill="#D0805F"/>
  <path d="M64.6,82.34c2.95,0.17,3.14-2.82,5.3-1.78c2.16,1.03-0.37,5.53-5.02,5.49 c-5.26-0.05-7.17-3.88-5.73-5.07C61.22,79.29,61.41,82.15,64.6,82.34z" fill="#D0805F"/>
  <path d="M50.24,73.94c2.02-0.12,1.69-2.63,4.41-1.69c2.3,0.8-0.33,5.21-4.74,5.16 c-3.94-0.04-6.1-3.33-5.02-4.32C47.03,71.15,47.9,74.08,50.24,73.94z" fill="#D0805F"/>
  <path d="M41.42,81.17c1.74-0.05,2.11-2.35,4.04-1.22c1.92,1.13,0.28,4.74-4.18,4.79 c-3.99,0.04-5.46-2.73-4.36-3.94C38.61,78.92,39.69,81.22,41.42,81.17z" fill="#D0805F"/>
  <path d="M70.52,45.13c1.45,4.58,6.87,7.03,11.73,5.49c4.86-1.54,7.38-6.41,5.82-11.4 c-1.77-5.66-6.91-6.84-11.78-5.3C71.42,35.45,69.06,40.54,70.52,45.13z" fill="#FFFEFF"/>
  <path d="M41.75,35.88c-2.87,3.86-2.5,9.25,1.6,12.29s9.63,3.25,12.76-0.94c3.56-4.75,2.07-9.95-2.02-13 S44.62,32.03,41.75,35.88z" fill="#FFFEFF"/>
  <path d="M84.78,39.76c1.2,3.06,0.12,6.56-3.04,7.81c-3.17,1.25-7.21-0.23-8.42-3.29 c-1.2-3.06,0.09-6.62,3.26-7.88C80,35.04,83.57,36.7,84.78,39.76z" fill="#303232"/>
  <path d="M54.98,44.52c-1.63,2.85-6.01,3.71-9.39,1.55c-2.87-1.83-3.09-5.59-1.45-8.45 c1.63-2.85,5.36-3.33,8.49-2.02C56.44,37.2,56.62,41.67,54.98,44.52z" fill="#303232"/>
  <path d="M59.39,46.11c0,0-0.16,6.1,0,8.17c0.23,2.96,0.86,5.09,1.74,6.85c0.94,1.88,2.35,3.94,3.05,3.94 c0.7,0,2.16-1.99,3-3.89c0.7-1.6,1.45-3.75,1.78-7.46c0.28-3.15,0.28-6.95,0.28-6.95L59.39,46.11z" fill="#2F2F2F"/>
  <path d="M64.23,40.58c3.24-0.07,4.18,1.92,4.88,3.61c0.42,1.01,0.7,3.1,0.42,3.47 c-0.28,0.38-2.72,0.99-4.93,0.99s-5.91-0.8-5.96-1.41c-0.05-0.61,0.56-2.89,1.17-3.8C60.94,41.75,62.02,40.62,64.23,40.58z" fill="#FEB903"/>
</svg>

<svg viewBox="0 0 128 128" xmlns="http://www.w3.org/2000/svg">
  <defs>
    <linearGradient id="SVGID_1_" gradientUnits="userSpaceOnUse" x1="63.4068" x2="63.7159" y1="60.8187" y2="110.6862">
      <stop offset="0.0499" stop-color="#F5DBB8"/>
      <stop offset="0.2381" stop-color="#F2D2AF"/>
      <stop offset="0.5467" stop-color="#E9B996"/>
      <stop offset="0.8936" stop-color="#DC9673"/>
    </linearGradient>
  </defs>
  <path d="M97.36,62.59 C97.36,62.59 101.86,52.88 101.37,44.22 C101.05,38.66 102.29,14.59 65.68,13.88 C29.08,13.18 26.82,34.62 26.82,45.13 C26.82,53.01 30.34,60.48 30.34,60.48 C30.34,60.48 27.38,59.78 24,63.72 C20.62,67.66 20.46,76.19 22.87,80.9 C25.9,86.81 30.89,90.19 30.89,90.19 L41.31,105.54 C41.31,105.54 39.76,109.83 37.09,113 C35.29,115.14 31.51,118.46 31.6,119.76 C31.74,121.73 35.82,120.75 41.74,121.03 C47.65,121.31 64.41,118.5 64.41,118.5 C64.41,118.5 87.22,119.91 89.47,120.05 C91.72,120.19 96.58,120.54 97.21,119.06 C97.6,118.15 93.79,114.86 92.21,112.02 C90.17,108.36 88.9,102.59 88.9,102.59 C88.9,102.59 93.55,92.88 95.52,91.33 C97.49,89.78 102.98,82.88 104.53,79.22 C106.08,75.56 106.64,68.66 103.4,65.42 C101,62.99 97.36,62.59 97.36,62.59 Z" fill="#6E4F44"/>
  <path d="M86.17,19.51 C86.17,19.51 88.28,15.01 92.51,12.26 C96.41,9.73 101.03,10.01 101.38,10.36 C101.73,10.71 100.84,14.04 99.27,16.27 C97.93,18.17 96.52,19.65 96.74,19.86 C97.13,20.25 98.46,18.53 100.19,17.11 C102.51,15.21 105.54,14.51 105.89,14.79 C106.24,15.07 106.73,20.14 104.48,24.43 C102.37,28.44 98.5,30.98 98.5,30.98 L93.08,23.66 L86.17,19.51 Z" fill="#6E4F44"/>
  <path d="M44.28,19.01 C44.28,19.01 41.75,13.8 38.72,10.7 C35.69,7.6 30.98,5.84 30.41,6.41 C29.84,6.98 29.92,10.42 30.62,12.67 C31.32,14.92 33.44,17.17 32.8,17.6 C32.17,18.02 31.07,15.47 29.98,14.29 C28.22,12.39 25.05,10.84 24.49,11.19 C23.93,11.54 22.59,16.89 25.26,21.82 C27.63,26.19 31.1,30.27 31.1,30.27 L39.27,22.46 L44.28,19.01 Z" fill="#6E4F44"/>
  <path d="M46.96,111.06 C46.96,111.06 46.46,113.14 43.86,115.47 C40.9,118.12 35.88,121.57 39.07,122.7 C42.26,123.83 46.77,123.83 51.46,122.89 C56.15,121.95 60.75,120.54 64.04,120.54 C67.32,120.54 73.99,121.76 77.27,122.23 C80.55,122.7 84.74,123.11 87.12,122.61 C89.33,122.14 90.38,121.16 86.58,117.21 C84.95,115.52 82.15,110.78 82.15,110.78 L63.19,113.88 L46.96,111.06 Z" fill="#878787"/>
  <path d="M36.45,61.41 C36.45,61.41 32.6,61.79 31.01,63.94 C29.42,66.09 27.26,72.2 27.63,80.83 C28.01,89.46 31.76,96.79 36.64,103.26 C41.52,109.74 48.18,116.31 63.29,115.84 C78.4,115.37 86.28,111.52 90.23,104.58 C94.17,97.63 99.05,88.44 99.52,79.8 C99.99,71.17 95.67,63.28 94.26,62.25 C92.85,61.22 63.76,59.81 63.76,59.81 L36.45,61.41 Z" fill="#875D54"/>
  <path d="M42.17,61.41 C42.17,61.41 32.88,69.76 34.57,84.4 C36.06,97.32 45.27,110.59 63.38,110.68 C83.94,110.79 91.52,96.11 92.57,84.21 C93.79,70.32 85.91,61.87 84.87,61.03 C83.84,60.19 42.17,61.41 42.17,61.41 Z" fill="url(#SVGID_1_)"/>
  <path d="M64.23,73.43 C64.23,73.43 72.3,64.89 78.68,63.2 C85.06,61.51 94.26,62.26 94.26,62.26 C94.26,62.26 98.55,55.83 98.86,43.49 C99.19,30.24 92.2,24.53 92.2,24.53 C92.2,24.53 80.56,22.28 72.49,30.72 C65.73,37.79 66.58,46.3 66.58,46.3 L62.94,45.69 C62.94,45.69 62.99,36.23 56.32,30.42 C49.65,24.61 40.48,23.12 40.48,23.12 C40.48,23.12 29.34,29.07 29.08,42.81 C28.8,57.54 34.36,61.74 34.36,61.74 C34.36,61.74 43.39,61.97 51.37,64.79 C59.35,67.61 64.23,73.43 64.23,73.43 Z" fill="#F2A35B"/>
  <path d="M93.23,42.83 C93.23,50.13 89.3,55.8 81.12,56.72 C72.26,57.72 67.88,50.97 67.88,43.67 C67.88,36.37 73.55,30.45 80.55,30.45 C87.55,30.45 93.23,35.53 93.23,42.83 Z" fill="#D0805F"/>
  <path d="M59.65,36.6 C63.28,43.2 61.83,52.97 55.78,55.59 C48.65,58.69 41.11,55.62 37.48,49.02 C33.85,42.42 36.25,34.88 42.38,31.51 C48.51,28.14 56.02,30 59.65,36.6 Z" fill="#D0805F"/>
  <path d="M78.35,73.14 C80.02,73.51 80.88,70.32 82.81,71.87 C84.73,73.42 82.01,76.37 79.01,76.47 C76.01,76.56 72.77,74.5 73.89,72.53 C75.02,70.56 76.43,72.72 78.35,73.14 Z" fill="#D0805F"/>
  <path d="M85.49,81.26 C87.88,81.03 89.06,78.35 90.65,79.99 C92.24,81.63 89.66,84.45 85.63,84.68 C81.59,84.91 79.44,82.85 80.33,81.25 C81.22,79.67 82.62,81.54 85.49,81.26 Z" fill="#D0805F"/>
  <path d="M64.6,82.34 C67.55,82.51 67.74,79.52 69.9,80.56 C72.06,81.59 69.53,86.09 64.88,86.05 C59.62,86 57.71,82.17 59.15,80.98 C61.22,79.29 61.41,82.15 64.6,82.34 Z" fill="#D0805F"/>
  <path d="M50.24,73.94 C52.26,73.82 51.93,71.31 54.65,72.25 C56.95,73.05 54.32,77.46 49.91,77.41 C45.97,77.37 43.81,74.08 44.89,73.09 C47.03,71.15 47.9,74.08 50.24,73.94 Z" fill="#D0805F"/>
  <path d="M41.42,81.17 C43.16,81.12 43.53,78.82 45.46,79.95 C47.38,81.08 45.74,84.69 41.28,84.74 C37.29,84.78 35.82,82.01 36.92,80.8 C38.61,78.92 39.69,81.22 41.42,81.17 Z" fill="#D0805F"/>
  <path d="M70.52,45.13 C71.97,49.71 77.39,52.16 82.25,50.62 C87.11,49.08 89.63,44.21 88.07,39.22 C86.3,33.56 81.16,32.38 76.29,33.92 C71.42,35.45 69.06,40.54 70.52,45.13 Z" fill="#FFFEFF"/>
  <path d="M41.75,35.88 C38.88,39.74 39.25,45.13 43.35,48.17 C47.45,51.21 52.98,51.42 56.11,47.23 C59.67,42.48 58.18,37.28 54.09,34.23 C50,31.18 44.62,32.03 41.75,35.88 Z" fill="#FFFEFF"/>
  <path d="M84.78,39.76 C85.98,42.82 84.9,46.32 81.74,47.57 C78.57,48.82 74.53,47.34 73.32,44.28 C72.12,41.22 73.41,37.66 76.58,36.4 C80,35.04 83.57,36.7 84.78,39.76 Z" fill="#303232"/>
  <path d="M54.98,44.52 C53.35,47.37 48.97,48.23 45.59,46.07 C42.72,44.24 42.5,40.48 44.14,37.62 C45.77,34.77 49.5,34.29 52.63,35.6 C56.44,37.2 56.62,41.67 54.98,44.52 Z" fill="#303232"/>
  <path d="M59.39,46.11 C59.39,46.11 59.23,52.21 59.39,54.28 C59.62,57.24 60.25,59.37 61.13,61.13 C62.07,63.01 63.48,65.07 64.18,65.07 C64.88,65.07 66.34,63.08 67.18,61.18 C67.88,59.58 68.63,57.43 68.96,53.72 C69.24,50.57 69.24,46.77 69.24,46.77 L59.39,46.11 Z" fill="#2F2F2F"/>
  <path d="M64.23,40.58 C67.47,40.51 68.41,42.5 69.11,44.19 C69.53,45.2 69.81,47.29 69.53,47.66 C69.25,48.04 66.81,48.65 64.6,48.65 C62.39,48.65 58.69,47.85 58.64,47.24 C58.59,46.63 59.2,44.35 59.81,43.44 C60.94,41.75 62.02,40.62 64.23,40.58 Z" fill="#FEB903"/>
</svg>
